source/images/icon-commandline.svg

<?xml version="1.0" encoding="UTF-8"?>
<svg width="121px" height="65px" viewBox="0 0 121 65" version="1.1" xmlns="http://www.w3.org/2000/svg" xmlns:xlink="http://www.w3.org/1999/xlink">
    <!-- Generator: Sketch 41.2 (35397) - https://www.sketchapp.com -->
    <title>icon-commandline</title>
    <desc>Created with Sketch.</desc>
    <defs></defs>
    <g id="Updated-HOME-+-icons" stroke="none" stroke-width="1" fill="none" fill-rule="evenodd">
        <g id="Artboard" transform="translate(-128.000000, -132.000000)" fill="#0093C9">
            <g id="icon-commandline" transform="translate(128.000000, 132.000000)">
                <path d="M8.3001,3.5611 C9.6021,3.5611 10.6641,4.6131 10.6641,5.9361 C10.6641,7.2381 9.6021,8.3001 8.3001,8.3001 C6.9871,8.3001 5.9251,7.2381 5.9251,5.9361 C5.9251,4.6231 6.9871,3.5611 8.3001,3.5611 Z M15.4111,3.5611 C16.7161,3.5611 17.7761,4.6131 17.7761,5.9361 C17.7761,7.2381 16.7161,8.3001 15.4111,8.3001 C14.0991,8.3001 13.0391,7.2381 13.0391,5.9361 C13.0391,4.6231 14.0991,3.5611 15.4111,3.5611 Z M53.7111,46.9021 L4.7391,46.9021 L4.7391,11.9041 L61.6301,11.9041 L61.6301,12.9141 L66.3801,12.9141 L66.3801,4.7391 C66.3801,2.1221 64.2471,0.0001 61.6301,0.0001 L4.7391,0.0001 C2.1221,0.0001 0.0001,2.1221 0.0001,4.7391 L0.0001,46.9021 C0.0001,49.5191 2.1221,51.6521 4.7391,51.6521 L53.7111,51.6521 L53.7111,46.9021 Z" id="Fill-1"></path>
                <path d="M58.45,59.8167 L115.341,59.8167 L115.341,24.8187 L58.45,24.8187 L58.45,59.8167 Z M62.011,16.4757 C63.313,16.4757 64.375,17.5267 64.375,18.8507 C64.375,20.1517 63.313,21.2147 62.011,21.2147 C60.698,21.2147 59.636,20.1517 59.636,18.8507 C59.636,17.5377 60.698,16.4757 62.011,16.4757 L62.011,16.4757 Z M69.122,16.4757 C70.427,16.4757 71.487,17.5267 71.487,18.8507 C71.487,20.1517 70.427,21.2147 69.122,21.2147 C67.81,21.2147 66.75,20.1517 66.75,18.8507 C66.75,17.5377 67.81,16.4757 69.122,16.4757 L69.122,16.4757 Z M115.341,12.9147 L58.45,12.9147 C55.833,12.9147 53.711,15.0367 53.711,17.6537 L53.711,59.8167 C53.711,62.4337 55.833,64.5667 58.45,64.5667 L115.341,64.5667 C117.958,64.5667 120.091,62.4337 120.091,59.8167 L120.091,17.6537 C120.091,15.0367 117.958,12.9147 115.341,12.9147 L115.341,12.9147 Z" id="Fill-3"></path>
                <path d="M24.7506,28.1714 C24.7506,27.7364 24.5826,27.3384 24.2636,27.0164 L14.5086,17.2644 C14.1886,16.9444 13.7896,16.7754 13.3546,16.7754 C12.9176,16.7754 12.5186,16.9444 12.2006,17.2644 L11.1536,18.3104 C10.8336,18.6304 10.6646,19.0284 10.6646,19.4634 C10.6646,19.9004 10.8336,20.3004 11.1536,20.6184 L18.7066,28.1714 L11.1516,35.7264 C10.8336,36.0464 10.6646,36.4454 10.6646,36.8804 C10.6646,37.3174 10.8336,37.7154 11.1536,38.0334 L12.1966,39.0784 C12.5146,39.3984 12.9156,39.5694 13.3546,39.5694 C13.7916,39.5694 14.1906,39.3994 14.5086,39.0804 L24.2636,29.3254 C24.5826,29.0064 24.7506,28.6084 24.7506,28.1714" id="Fill-5"></path>
                <path d="M41.6994,36.5985 L21.6044,36.5985 C21.1554,36.5985 20.7574,36.7585 20.4484,37.0665 C20.1434,37.3715 19.9814,37.7715 19.9814,38.2195 L19.9814,39.5595 C19.9814,40.0095 20.1454,40.4095 20.4484,40.7125 C20.7534,41.0195 21.1534,41.1815 21.6044,41.1815 L41.6994,41.1815 C42.1494,41.1815 42.5494,41.0195 42.8524,40.7145 C43.1584,40.4095 43.3204,40.0095 43.3204,39.5575 L43.3204,38.2195 C43.3204,37.7695 43.1604,37.3715 42.8524,37.0625 C42.5474,36.7585 42.1474,36.5985 41.6994,36.5985" id="Fill-6"></path>
                <path d="M79.9995,44.2237 C77.7825,44.4137 75.8255,42.7607 75.6405,40.5437 C75.4505,38.3267 77.1035,36.3697 79.3205,36.1847 C81.5375,35.9947 83.4945,37.6477 83.6795,39.8647 C83.8695,42.0817 82.2165,44.0387 79.9995,44.2237 M87.7345,32.3597 L86.1615,31.0317 C85.6765,30.6217 84.9635,30.6417 84.5035,31.0767 L83.6345,31.8907 C82.9005,31.5357 82.1215,31.2857 81.3175,31.1417 L81.0735,29.9427 C80.9485,29.3237 80.3735,28.8947 79.7445,28.9447 L77.6925,29.1187 C77.0635,29.1737 76.5695,29.6877 76.5495,30.3227 L76.5095,31.5407 C75.7205,31.8257 74.9765,32.2147 74.2975,32.7037 L73.2585,32.0147 C72.7295,31.6657 72.0255,31.7657 71.6165,32.2497 L70.2875,33.8327 C69.8785,34.3167 69.8985,35.0307 70.3325,35.4907 L71.2415,36.4587 C70.9265,37.1677 70.7025,37.9117 70.5725,38.6757 L69.2745,38.9407 C68.6545,39.0657 68.2255,39.6397 68.2755,40.2687 L68.4505,42.3217 C68.5055,42.9507 69.0195,43.4447 69.6535,43.4647 L71.0565,43.5097 C71.3115,44.1787 71.6455,44.8127 72.0505,45.4067 L71.2665,46.5907 C70.9165,47.1197 71.0165,47.8237 71.5005,48.2327 L73.0745,49.5617 C73.5585,49.9707 74.2725,49.9507 74.7315,49.5167 L75.7605,48.5527 C76.4345,48.8677 77.1435,49.1017 77.8725,49.2417 L78.1575,50.6497 C78.2815,51.2687 78.8565,51.6987 79.4855,51.6487 L81.5375,51.4737 C82.1665,51.4187 82.6605,50.9047 82.6805,50.2707 L82.7265,48.8917 C83.4755,48.6277 84.1845,48.2677 84.8385,47.8237 L85.9715,48.5727 C86.5005,48.9217 87.2045,48.8227 87.6145,48.3377 L88.9425,46.7647 C89.3515,46.2807 89.3325,45.5667 88.8975,45.1077 L87.9835,44.1387 C88.3185,43.4297 88.5635,42.6807 88.7025,41.9117 L89.9515,41.6567 C90.5705,41.5327 90.9995,40.9577 90.9495,40.3287 L90.7745,38.2767 C90.7205,37.6477 90.2055,37.1537 89.5715,37.1327 L88.3185,37.0937 C88.0585,36.3647 87.7095,35.6747 87.2745,35.0357 L87.9585,34.0077 C88.3185,33.4787 88.2185,32.7687 87.7345,32.3597" id="Fill-7"></path>
                <path d="M98.4703,48.3955 C97.0493,48.5175 95.7953,47.4575 95.6763,46.0365 C95.5553,44.6165 96.6143,43.3615 98.0353,43.2435 C99.4563,43.1215 100.7103,44.1805 100.8293,45.6015 C100.9503,47.0225 99.8913,48.2775 98.4703,48.3955 M103.4273,40.7915 L102.4193,39.9405 C102.1093,39.6785 101.6513,39.6905 101.3573,39.9695 L100.8003,40.4905 C100.3293,40.2635 99.8303,40.1035 99.3153,40.0105 L99.1583,39.2425 C99.0783,38.8465 98.7103,38.5705 98.3073,38.6025 L96.9923,38.7145 C96.5883,38.7505 96.2723,39.0795 96.2593,39.4865 L96.2333,40.2665 C95.7283,40.4495 95.2513,40.6985 94.8153,41.0125 L94.1503,40.5705 C93.8113,40.3465 93.3593,40.4105 93.0973,40.7215 L92.2463,41.7355 C91.9833,42.0465 91.9963,42.5035 92.2743,42.7985 L92.8573,43.4195 C92.6553,43.8735 92.5113,44.3505 92.4283,44.8395 L91.5963,45.0095 C91.1993,45.0895 90.9243,45.4575 90.9563,45.8605 L91.0683,47.1765 C91.1033,47.5795 91.4333,47.8965 91.8393,47.9095 L92.7393,47.9375 C92.9023,48.3665 93.1163,48.7735 93.3753,49.1535 L92.8733,49.9125 C92.6493,50.2515 92.7133,50.7025 93.0233,50.9655 L94.0313,51.8165 C94.3423,52.0785 94.7993,52.0665 95.0943,51.7875 L95.7533,51.1705 C96.1853,51.3715 96.6403,51.5225 97.1073,51.6115 L97.2893,52.5145 C97.3693,52.9105 97.7373,53.1865 98.1403,53.1545 L99.4563,53.0425 C99.8593,53.0065 100.1763,52.6775 100.1893,52.2705 L100.2173,51.3875 C100.6983,51.2175 101.1523,50.9875 101.5713,50.7025 L102.2983,51.1825 C102.6373,51.4065 103.0883,51.3425 103.3503,51.0325 L104.2023,50.0245 C104.4643,49.7135 104.4513,49.2565 104.1733,48.9615 L103.5873,48.3415 C103.8023,47.8865 103.9583,47.4065 104.0483,46.9135 L104.8483,46.7505 C105.2453,46.6705 105.5203,46.3025 105.4883,45.8995 L105.3763,44.5845 C105.3413,44.1805 105.0113,43.8635 104.6053,43.8515 L103.8023,43.8255 C103.6353,43.3585 103.4113,42.9165 103.1333,42.5075 L103.5713,41.8475 C103.8023,41.5085 103.7383,41.0545 103.4273,40.7915" id="Fill-8"></path>
                <path d="M94.483,34.4251 C93.636,34.4971 92.888,33.8661 92.817,33.0191 C92.745,32.1721 93.376,31.4241 94.224,31.3531 C95.071,31.2811 95.819,31.9121 95.889,32.7591 C95.962,33.6061 95.33,34.3541 94.483,34.4251 M97.438,29.8921 L96.837,29.3841 C96.652,29.2281 96.38,29.2351 96.204,29.4011 L95.872,29.7121 C95.592,29.5771 95.294,29.4821 94.987,29.4261 L94.893,28.9681 C94.846,28.7321 94.626,28.5681 94.386,28.5871 L93.602,28.6541 C93.361,28.6751 93.172,28.8711 93.165,29.1131 L93.149,29.5791 C92.848,29.6881 92.564,29.8361 92.304,30.0231 L91.907,29.7601 C91.705,29.6271 91.436,29.6651 91.28,29.8501 L90.772,30.4551 C90.616,30.6401 90.623,30.9131 90.789,31.0881 L91.137,31.4581 C91.016,31.7291 90.931,32.0131 90.881,32.3051 L90.385,32.4061 C90.148,32.4541 89.984,32.6731 90.003,32.9141 L90.07,33.6981 C90.091,33.9381 90.288,34.1271 90.53,34.1351 L91.066,34.1521 C91.163,34.4081 91.291,34.6501 91.446,34.8771 L91.146,35.3291 C91.013,35.5321 91.051,35.8011 91.236,35.9571 L91.837,36.4651 C92.022,36.6211 92.295,36.6131 92.47,36.4471 L92.863,36.0791 C93.121,36.1991 93.392,36.2891 93.67,36.3421 L93.779,36.8801 C93.827,37.1171 94.046,37.2811 94.287,37.2621 L95.071,37.1951 C95.311,37.1741 95.5,36.9781 95.508,36.7351 L95.525,36.2091 C95.811,36.1081 96.082,35.9701 96.332,35.8011 L96.765,36.0871 C96.967,36.2201 97.236,36.1821 97.393,35.9971 L97.9,35.3961 C98.057,35.2111 98.049,34.9381 97.883,34.7631 L97.534,34.3931 C97.662,34.1221 97.755,33.8351 97.809,33.5421 L98.285,33.4441 C98.522,33.3971 98.686,33.1771 98.667,32.9371 L98.6,32.1531 C98.579,31.9121 98.383,31.7231 98.141,31.7161 L97.662,31.7001 C97.562,31.4221 97.429,31.1591 97.263,30.9141 L97.524,30.5211 C97.662,30.3191 97.624,30.0481 97.438,29.8921" id="Fill-9"></path>
            </g>
        </g>
    </g>
</svg>

<svg height="65" viewBox="0 0 121 65" width="121" xmlns="http://www.w3.org/2000/svg"><g fill="#0093c9" fill-rule="evenodd"><path d="m8.3001 3.5611c1.302 0 2.364 1.052 2.364 2.375 0 1.302-1.062 2.364-2.364 2.364-1.313 0-2.375-1.062-2.375-2.364 0-1.313 1.062-2.375 2.375-2.375zm7.111 0c1.305 0 2.365 1.052 2.365 2.375 0 1.302-1.06 2.364-2.365 2.364-1.312 0-2.372-1.062-2.372-2.364 0-1.313 1.06-2.375 2.372-2.375zm38.3 43.341h-48.972v-34.998h56.891v1.01h4.75v-8.175c0-2.617-2.133-4.739-4.75-4.739h-56.891c-2.617 0-4.739 2.122-4.739 4.739v42.163c0 2.617 2.122 4.75 4.739 4.75h48.972z"/><path d="m58.45 59.8167h56.891v-34.998h-56.891zm3.561-43.341c1.302 0 2.364 1.051 2.364 2.375 0 1.301-1.062 2.364-2.364 2.364-1.313 0-2.375-1.063-2.375-2.364 0-1.313 1.062-2.375 2.375-2.375zm7.111 0c1.305 0 2.365 1.051 2.365 2.375 0 1.301-1.06 2.364-2.365 2.364-1.312 0-2.372-1.063-2.372-2.364 0-1.313 1.06-2.375 2.372-2.375zm46.219-3.561h-56.891c-2.617 0-4.739 2.122-4.739 4.739v42.163c0 2.617 2.122 4.75 4.739 4.75h56.891c2.617 0 4.75-2.133 4.75-4.75v-42.163c0-2.617-2.133-4.739-4.75-4.739z"/><path d="m24.7506 28.1714c0-.435-.168-.833-.487-1.155l-9.755-9.752c-.32-.32-.719-.489-1.154-.489-.437 0-.836.169-1.154.489l-1.047 1.046c-.32.32-.489.718-.489 1.153 0 .437.169.837.489 1.155l7.553 7.553-7.555 7.555c-.318.32-.487.719-.487 1.154 0 .437.169.835.489 1.153l1.043 1.045c.318.32.719.491 1.158.491.437 0 .836-.17 1.154-.489l9.755-9.755c.319-.319.487-.717.487-1.154"/><path d="m41.6994 36.5985h-20.095c-.449 0-.847.16-1.156.468-.305.305-.467.705-.467 1.153v1.34c0 .45.164.85.467 1.153.305.307.705.469 1.156.469h20.095c.45 0 .85-.162 1.153-.467.306-.305.468-.705.468-1.157v-1.338c0-.45-.16-.848-.468-1.157-.305-.304-.705-.464-1.153-.464"/><path d="m79.9995 44.2237c-2.217.19-4.174-1.463-4.359-3.68-.19-2.217 1.463-4.174 3.68-4.359 2.217-.19 4.174 1.463 4.359 3.68.19 2.217-1.463 4.174-3.68 4.359m7.735-11.864-1.573-1.328c-.485-.41-1.198-.39-1.658.045l-.869.814c-.734-.355-1.513-.605-2.317-.749l-.244-1.199c-.125-.619-.7-1.048-1.329-.998l-2.052.174c-.629.055-1.123.569-1.143 1.204l-.04 1.218c-.789.285-1.533.674-2.212 1.163l-1.039-.689c-.529-.349-1.233-.249-1.642.235l-1.329 1.583c-.409.484-.389 1.198.045 1.658l.909.968c-.315.709-.539 1.453-.669 2.217l-1.298.265c-.62.125-1.049.699-.999 1.328l.175 2.053c.055.629.569 1.123 1.203 1.143l1.403.045c.255.669.589 1.303.994 1.897l-.784 1.184c-.35.529-.25 1.233.234 1.642l1.574 1.329c.484.409 1.198.389 1.657-.045l1.029-.964c.674.315 1.383.549 2.112.689l.285 1.408c.124.619.699 1.049 1.328.999l2.052-.175c.629-.055 1.123-.569 1.143-1.203l.046-1.379c.749-.264 1.458-.624 2.112-1.068l1.133.749c.529.349 1.233.25 1.643-.235l1.328-1.573c.409-.484.39-1.198-.045-1.657l-.914-.969c.335-.709.58-1.458.719-2.227l1.249-.255c.619-.124 1.048-.699.998-1.328l-.175-2.052c-.054-.629-.569-1.123-1.203-1.144l-1.253-.039c-.26-.729-.609-1.419-1.044-2.058l.684-1.028c.36-.529.26-1.239-.224-1.648"/><path d="m98.4703 48.3955c-1.421.122-2.675-.938-2.794-2.359-.121-1.42.938-2.675 2.359-2.793 1.421-.122 2.675.937 2.794 2.358.121 1.421-.938 2.676-2.359 2.794m4.957-7.604-1.008-.851c-.31-.262-.768-.25-1.062.029l-.557.521c-.471-.227-.97-.387-1.485-.48l-.157-.768c-.08-.396-.448-.672-.851-.64l-1.315.112c-.404.036-.72.365-.733.772l-.026.78c-.505.183-.982.432-1.418.746l-.665-.442c-.339-.224-.791-.16-1.053.151l-.851 1.014c-.263.311-.25.768.028 1.063l.583.621c-.202.454-.346.931-.429 1.42l-.832.17c-.397.08-.672.448-.64.851l.112 1.316c.035.403.365.72.771.733l.9.028c.163.429.377.836.636 1.216l-.502.759c-.224.339-.16.79.15 1.053l1.008.851c.311.262.768.25 1.063-.029l.659-.617c.432.201.887.352 1.354.441l.182.903c.08.396.448.672.851.64l1.316-.112c.403-.036.72-.365.733-.772l.028-.883c.481-.17.935-.4 1.354-.685l.727.48c.339.224.79.16 1.052-.15l.852-1.008c.262-.311.249-.768-.029-1.063l-.586-.62c.215-.455.371-.935.461-1.428l.8-.163c.397-.08.672-.448.64-.851l-.112-1.315c-.035-.404-.365-.721-.771-.733l-.803-.026c-.167-.467-.391-.909-.669-1.318l.438-.66c.231-.339.167-.793-.144-1.056"/><path d="m94.483 34.4251c-.847.072-1.595-.559-1.666-1.406-.072-.847.559-1.595 1.407-1.666.847-.072 1.595.559 1.665 1.406.073.847-.559 1.595-1.406 1.666m2.955-4.533-.601-.508c-.185-.156-.457-.149-.633.017l-.332.311c-.28-.135-.578-.23-.885-.286l-.094-.458c-.047-.236-.267-.4-.507-.381l-.784.067c-.241.021-.43.217-.437.459l-.016.466c-.301.109-.585.257-.845.444l-.397-.263c-.202-.133-.471-.095-.627.09l-.508.605c-.156.185-.149.458.017.633l.348.37c-.121.271-.206.555-.256.847l-.496.101c-.237.048-.401.267-.382.508l.067.784c.021.24.218.429.46.437l.536.017c.097.256.225.498.38.725l-.3.452c-.133.203-.095.472.09.628l.601.508c.185.156.458.148.633-.018l.393-.368c.258.12.529.21.807.263l.109.538c.048.237.267.401.508.382l.784-.067c.24-.021.429-.217.437-.46l.017-.526c.286-.101.557-.239.807-.408l.433.286c.202.133.471.095.628-.09l.507-.601c.157-.185.149-.458-.017-.633l-.349-.37c.128-.271.221-.558.275-.851l.476-.098c.237-.047.401-.267.382-.507l-.067-.784c-.021-.241-.217-.43-.459-.437l-.479-.016c-.1-.278-.233-.541-.399-.786l.261-.393c.138-.202.1-.473-.086-.629"/></g></svg>
